; generated by PrusaSlicer 2.4.0+win64 on 2022-05-02 at 07:21:18 UTC

; 

; external perimeters extrusion width = 0.45mm
; perimeters extrusion width = 0.45mm
; infill extrusion width = 0.45mm
; solid infill extrusion width = 0.45mm
; top infill extrusion width = 0.40mm
; support material extrusion width = 0.35mm
; first layer extrusion width = 0.42mm

M73 P0 R62
M73 Q0 S62
M201 X1000 Y1000 Z200 E5000 ; sets maximum accelerations, mm/sec^2
M203 X200 Y200 Z12 E120 ; sets maximum feedrates, mm/sec
M204 P1250 R1250 T1250 ; sets acceleration (P, T) and retract acceleration (R), mm/sec^2
M205 X8.00 Y8.00 Z0.40 E4.50 ; sets the jerk limits, mm/sec
M205 S0 T0 ; sets the minimum extruding and travel feed rate, mm/sec
M107
;TYPE:Custom
M862.3 P "MK3S" ; printer model check
M862.1 P0.4 ; nozzle diameter check
M115 U3.10.0 ; tell printer latest fw version
G90 ; use absolute coordinates
M83 ; extruder relative mode
M104 S215 ; set extruder temp
M140 S60 ; set bed temp
M190 S60 ; wait for bed temp
M109 S215 ; wait for extruder temp
G28 W ; home all without mesh bed level
G80 ; mesh bed leveling
G1 Z0.2 F720
G1 Y-3 F1000 ; go outside print area
G92 E0
G1 X60 E9 F1000 ; intro line
G1 X100 E12.5 F1000 ; intro line
G92 E0
M221 S95

; Don't change E values below. Excessive value can damage the printer.
M907 E430 ; set extruder motor current
G21 ; set units to millimeters
G90 ; use absolute coordinates
M83 ; use relative distances for extrusion
M900 K0.05 ; Filament gcode LA 1.5
M900 K30 ; Filament gcode LA 1.0
M107
;LAYER_CHANGE
;Z:0.2
;HEIGHT:0.2
;BEFORE_LAYER_CHANGE
G92 E0.0
;0.2


G1 E-.8 F2100
G1 Z.4 F720
;AFTER_LAYER_CHANGE
;0.2
G1 X85.77 Y84.226 F10800
G1 Z.2 F720
G1 E.8 F2100
M204 S800
;TYPE:Skirt/Brim
;WIDTH:0.42
G1 F1200
G1 X104.226 Y65.77 E.8184
G1 X105.907 Y65.073 E.05704
G1 X144.093 Y65.073 E1.1973
G1 X145.774 Y65.77 E.05704
G1 X164.231 Y84.226 E.8184
G1 X164.927 Y85.907 E.05704
G1 X164.927 Y124.093 E1.1973
G1 X164.231 Y125.774 E.05704
G1 X145.774 Y144.231 E.8184
G1 X144.093 Y144.927 E.05704
G1 X105.907 Y144.927 E1.1973
G1 X104.226 Y144.231 E.05704
G1 X85.77 Y125.774 E.8184
G1 X85.073 Y124.093 E.05704
G1 X85.073 Y85.907 E1.1973
G1 X85.747 Y84.282 E.05516
M204 S1000
; printing object board holder bottom.stl id:0 copy 0
;WIPE_START
M73 P0 R61
G1 F8640
G1 X88.072 Y81.952 E-.76
;WIPE_END
G1 E-.04 F2100
G1 Z.6 F720
G1 X144.093 Y69.757 F10800
G1 Z.2 F720
G1 E.8 F2100
M204 S800
;TYPE:Support material
G1 F1200
G1 X146.4 Y69.757 E.07234
G1 X146.4 Y72.065 E.07234
G1 X148.707 Y72.065 E.07234
G1 X148.707 Y74.372 E.07234
G1 X151.014 Y74.372 E.07234
G1 X151.014 Y76.679 E.07234
G1 X153.321 Y76.679 E.07234
G1 X153.321 Y78.986 E.07234
G1 X155.628 Y78.986 E.07234
G1 X155.628 Y81.293 E.07234
G1 X157.935 Y81.293 E.07234
G1 X157.935 Y83.6 E.07234
G1 X160.243 Y83.6 E.07234
G1 X160.243 Y85.907 E.07234
G1 X162.55 Y85.907 E.07234
G1 X162.55 Y124.093 E1.1973
G1 X160.243 Y124.093 E.07234
G1 X160.243 Y126.4 E.07234
G1 X157.935 Y126.4 E.07234
G1 X157.935 Y128.707 E.07234
G1 X155.628 Y128.707 E.07234
G1 X155.628 Y131.014 E.07234
G1 X153.321 Y131.014 E.07234
G1 X153.321 Y133.321 E.07234
G1 X151.014 Y133.321 E.07234
G1 X151.014 Y135.628 E.07234
G1 X148.707 Y135.628 E.07234
G1 X148.707 Y137.935 E.07234
G1 X146.4 Y137.935 E.07234
G1 X146.4 Y140.243 E.07234
G1 X144.093 Y140.243 E.07234
G1 X144.093 Y142.55 E.07234
G1 X105.907 Y142.55 E1.1973
G1 X105.907 Y140.243 E.07234
G1 X103.6 Y140.243 E.07234
G1 X103.6 Y137.935 E.07234
G1 X101.293 Y137.935 E.07234
G1 X101.293 Y135.628 E.07234
G1 X98.986 Y135.628 E.07234
G1 X98.986 Y133.321 E.07234
G1 X96.679 Y133.321 E.07234
G1 X96.679 Y131.014 E.07234
G1 X94.372 Y131.014 E.07234
G1 X94.372 Y128.707 E.07234
G1 X92.065 Y128.707 E.07234
G1 X92.065 Y126.4 E.07234
G1 X89.757 Y126.4 E.07234
G1 X89.757 Y124.093 E.07234
G1 X87.45 Y124.093 E.07234
G1 X87.45 Y85.907 E1.1973
G1 X89.757 Y85.907 E.07234
G1 X89.757 Y83.6 E.07234
G1 X92.065 Y83.6 E.07234
G1 X92.065 Y81.293 E.07234
G1 X94.372 Y81.293 E.07234
G1 X94.372 Y78.986 E.07234
G1 X96.679 Y78.986 E.07234
G1 X96.679 Y76.679 E.07234
G1 X98.986 Y76.679 E.07234
G1 X98.986 Y74.372 E.07234
G1 X101.293 Y74.372 E.07234
G1 X101.293 Y72.065 E.07234
G1 X103.6 Y72.065 E.07234
G1 X103.6 Y69.757 E.07234
G1 X105.907 Y69.757 E.07234
G1 X105.907 Y67.45 E.07234
G1 X144.093 Y67.45 E1.1973
G1 X144.093 Y69.701 E.07056
M204 S1000
M73 Q0 S61
G1 X112.07 Y73.535 F10800
M204 S800
M73 Q1 S61
G1 F1200
M73 P1 R61
G1 X111.894 Y73.608 E.00599
G1 X93.608 Y91.894 E.81081
G1 X93.535 Y92.07 E.00599
G1 X93.535 Y117.93 E.81081
G1 X93.608 Y118.106 E.00599
G1 X111.894 Y136.392 E.81081
G1 X112.07 Y136.465 E.00599
G1 X137.93 Y136.465 E.81081
G1 X138.106 Y136.392 E.00599
G1 X156.392 Y118.106 E.81081
G1 X156.465 Y117.93 E.00599
G1 X156.465 Y92.07 E.81081
G1 X156.392 Y91.894 E.00599
G1 X138.106 Y73.608 E.81081
G1 X137.93 Y73.535 E.00599
G1 X112.127 Y73.535 E.80904
M204 S1000
;WIPE_START
G1 F8640
G1 X115.418 Y73.535 E-.76
;WIPE_END
G1 E-.04 F2100
G1 Z.6 F720
G1 X161.87 Y123.923 F10800
G1 Z.2 F720
G1 E.8 F2100
M204 S800
G1 F1200
G1 X161.87 Y86.246 E1.18133
G1 X161.451 Y86.246 E.01314
G1 X161.451 Y123.754 E1.17601
G1 X161.032 Y123.754 E.01314
G1 X161.032 Y86.246 E1.17601
G1 X160.613 Y86.246 E.01314
G1 X160.613 Y123.754 E1.17601
G1 X160.194 Y123.754 E.01314
G1 X160.194 Y86.246 E1.17601
G1 X159.903 Y86.246 E.00912
G1 X159.903 Y83.939 E.07234
G1 X159.775 Y83.939 E.00402
G1 X159.775 Y126.061 E1.32069
G1 X159.356 Y126.061 E.01314
G1 X159.356 Y83.939 E1.32069
G1 X158.937 Y83.939 E.01314
G1 X158.937 Y126.061 E1.32069
G1 X158.518 Y126.061 E.01314
G1 X158.518 Y83.939 E1.32069
G1 X158.099 Y83.939 E.01314
G1 X158.099 Y126.061 E1.32069
G1 X157.68 Y126.061 E.01314
G1 X157.68 Y83.939 E1.32069
G1 X157.596 Y83.939 E.00264
G1 X157.596 Y81.632 E.07234
G1 X157.261 Y81.632 E.0105
G1 X157.261 Y128.368 E1.46536
G1 X156.842 Y128.368 E.01314
G1 X156.842 Y81.632 E1.46536
G1 X156.423 Y81.632 E.01314
M73 P2 R61
M73 Q2 S61
G1 X156.423 Y91.445 E.30769
G1 X156.004 Y91.026 E.01858
G1 X156.004 Y81.632 E.29455
G1 X155.585 Y81.632 E.01314
G1 X155.585 Y90.607 E.28141
G1 X155.166 Y90.189 E.01858
G1 X155.166 Y79.325 E.34061
G1 X154.747 Y79.325 E.01314
G1 X154.747 Y89.77 E.32748
G1 X154.328 Y89.351 E.01858
G1 X154.328 Y79.325 E.31434
G1 X153.909 Y79.325 E.01314
M73 P2 R60
G1 X153.909 Y88.932 E.3012
G1 X153.49 Y88.513 E.01858
G1 X153.49 Y79.325 E.28807
G1 X153.071 Y79.325 E.01314
G1 X153.071 Y88.094 E.27493
G1 X152.652 Y87.675 E.01858
G1 X152.652 Y77.018 E.33413
G1 X152.234 Y77.018 E.01314
G1 X152.234 Y87.256 E.32099
G1 X151.815 Y86.837 E.01858
G1 X151.815 Y77.018 E.30786
G1 X151.396 Y77.018 E.01314
G1 X151.396 Y86.418 E.29472
G1 X150.977 Y85.999 E.01858
G1 X150.977 Y77.018 E.28158
G1 X150.675 Y77.018 E.00946
G1 X150.675 Y74.711 E.07234
G1 X150.558 Y74.711 E.00368
G1 X150.558 Y85.58 E.34078
G1 X150.139 Y85.161 E.01858
G1 X150.139 Y74.711 E.32765
G1 X149.72 Y74.711 E.01314
G1 X149.72 Y84.742 E.31451
G1 X149.301 Y84.323 E.01858
G1 X149.301 Y74.711 E.30137
G1 X148.882 Y74.711 E.01314
G1 X148.882 Y83.904 E.28824
G1 X148.463 Y83.485 E.01858
G1 X148.463 Y74.711 E.2751
G1 X148.368 Y74.711 E.00298
G1 X148.368 Y72.404 E.07234
G1 X148.044 Y72.404 E.01016
G1 X148.044 Y83.066 E.3343
G1 X147.625 Y82.647 E.01858
G1 X147.625 Y72.404 E.32116
G1 X147.206 Y72.404 E.01314
G1 X147.206 Y82.228 E.30803
G1 X146.787 Y81.809 E.01858
G1 X146.787 Y72.404 E.29489
G1 X146.368 Y72.404 E.01314
G1 X146.368 Y81.39 E.28175
G1 X145.949 Y80.971 E.01858
G1 X145.949 Y70.097 E.34095
G1 X145.53 Y70.097 E.01314
G1 X145.53 Y80.552 E.32782
G1 X145.111 Y80.133 E.01858
G1 X145.111 Y70.097 E.31468
G1 X144.692 Y70.097 E.01314
G1 X144.692 Y79.714 E.30154
G1 X144.273 Y79.295 E.01858
G1 X144.273 Y70.097 E.28841
G1 X143.854 Y70.097 E.01314
G1 X143.854 Y78.876 E.27527
G1 X143.435 Y78.457 E.01858
G1 X143.435 Y67.79 E.33447
G1 X143.016 Y67.79 E.01314
G1 X143.016 Y78.038 E.32133
G1 X142.597 Y77.619 E.01858
G1 X142.597 Y67.79 E.3082
G1 X142.178 Y67.79 E.01314
G1 X142.178 Y77.2 E.29506
G1 X141.759 Y76.781 E.01858
G1 X141.759 Y67.79 E.28192
G1 X141.34 Y67.79 E.01314
M73 Q2 S60
G1 X141.34 Y76.362 E.26879
G1 X140.921 Y75.943 E.01858
G1 X140.921 Y67.79 E.25565
G1 X140.502 Y67.79 E.01314
G1 X140.502 Y75.524 E.24251
G1 X140.083 Y75.105 E.01858
G1 X140.083 Y67.79 E.22938
G1 X139.664 Y67.79 E.01314
G1 X139.664 Y74.686 E.21624
G1 X139.245 Y74.267 E.01858
G1 X139.245 Y67.79 E.2031
G1 X138.826 Y67.79 E.01314
G1 X138.826 Y73.848 E.18997
G1 X138.407 Y73.429 E.01858
G1 X138.407 Y67.79 E.17683
G1 X137.988 Y67.79 E.01314
G1 X137.988 Y73.196 E.16951
G1 X137.569 Y73.196 E.01314
G1 X137.569 Y67.79 E.16951
G1 X137.15 Y67.79 E.01314
G1 X137.15 Y73.196 E.16951
G1 X136.731 Y73.196 E.01314
G1 X136.731 Y67.79 E.16951
G1 X136.312 Y67.79 E.01314
G1 X136.312 Y73.196 E.16951
G1 X135.893 Y73.196 E.01314
G1 X135.893 Y67.79 E.16951
G1 X135.474 Y67.79 E.01314
G1 X135.474 Y73.196 E.16951
G1 X135.055 Y73.196 E.01314
G1 X135.055 Y67.79 E.16951
G1 X134.636 Y67.79 E.01314
G1 X134.636 Y73.196 E.16951
G1 X134.217 Y73.196 E.01314
G1 X134.217 Y67.79 E.16951
G1 X133.799 Y67.79 E.01314
G1 X133.799 Y73.196 E.16951
G1 X133.38 Y73.196 E.01314
G1 X133.38 Y67.79 E.16951
G1 X132.961 Y67.79 E.01314
G1 X132.961 Y73.196 E.16951
G1 X132.542 Y73.196 E.01314
G1 X132.542 Y67.79 E.16951
G1 X132.123 Y67.79 E.01314
G1 X132.123 Y73.196 E.16951
G1 X131.704 Y73.196 E.01314
G1 X131.704 Y67.79 E.16951
G1 X131.285 Y67.79 E.01314
G1 X131.285 Y73.196 E.16951
G1 X130.866 Y73.196 E.01314
G1 X130.866 Y67.79 E.16951
G1 X130.447 Y67.79 E.01314
G1 X130.447 Y73.196 E.16951
G1 X130.028 Y73.196 E.01314
G1 X130.028 Y67.79 E.16951
G1 X129.609 Y67.79 E.01314
G1 X129.609 Y73.196 E.16951
G1 X129.19 Y73.196 E.01314
G1 X129.19 Y67.79 E.16951
G1 X128.771 Y67.79 E.01314
G1 X128.771 Y73.196 E.16951
G1 X128.352 Y73.196 E.01314
G1 X128.352 Y67.79 E.16951
G1 X127.933 Y67.79 E.01314
G1 X127.933 Y73.196 E.16951
G1 X127.514 Y73.196 E.01314
G1 X127.514 Y67.79 E.16951
G1 X127.095 Y67.79 E.01314
G1 X127.095 Y73.196 E.16951
G1 X126.676 Y73.196 E.01314
G1 X126.676 Y67.79 E.16951
G1 X126.257 Y67.79 E.01314
G1 X126.257 Y73.196 E.16951
G1 X125.838 Y73.196 E.01314
G1 X125.838 Y67.79 E.16951
G1 X125.419 Y67.79 E.01314
G1 X125.419 Y73.196 E.16951
G1 X125 Y73.196 E.01314
G1 X125 Y67.79 E.16951
G1 X124.581 Y67.79 E.01314
G1 X124.581 Y73.196 E.16951
G1 X124.162 Y73.196 E.01314
G1 X124.162 Y67.79 E.16951
G1 X123.743 Y67.79 E.01314
G1 X123.743 Y73.196 E.16951
G1 X123.324 Y73.196 E.01314
G1 X123.324 Y67.79 E.16951
G1 X122.905 Y67.79 E.01314
G1 X122.905 Y73.196 E.16951
G1 X122.486 Y73.196 E.01314
G1 X122.486 Y67.79 E.16951
G1 X122.067 Y67.79 E.01314
G1 X122.067 Y73.196 E.16951
G1 X121.648 Y73.196 E.01314
G1 X121.648 Y67.79 E.16951
G1 X121.229 Y67.79 E.01314
G1 X121.229 Y73.196 E.16951
G1 X120.81 Y73.196 E.01314
G1 X120.81 Y67.79 E.16951
G1 X120.391 Y67.79 E.01314
G1 X120.391 Y73.196 E.16951
G1 X119.972 Y73.196 E.01314
G1 X119.972 Y67.79 E.16951
G1 X119.553 Y67.79 E.01314
M73 P3 R60
M73 Q3 S60
G1 X119.553 Y73.196 E.16951
G1 X119.134 Y73.196 E.01314
G1 X119.134 Y67.79 E.16951
G1 X118.715 Y67.79 E.01314
G1 X118.715 Y73.196 E.16951
G1 X118.296 Y73.196 E.01314
G1 X118.296 Y67.79 E.16951
G1 X117.877 Y67.79 E.01314
G1 X117.877 Y73.196 E.16951
G1 X117.458 Y73.196 E.01314
G1 X117.458 Y67.79 E.16951
G1 X117.039 Y67.79 E.01314
G1 X117.039 Y73.196 E.16951
G1 X116.62 Y73.196 E.01314
G1 X116.62 Y67.79 E.16951
G1 X116.201 Y67.79 E.01314
G1 X116.201 Y73.196 E.16951
G1 X115.783 Y73.196 E.01314
G1 X115.783 Y67.79 E.16951
G1 X115.364 Y67.79 E.01314
G1 X115.364 Y73.196 E.16951
G1 X114.945 Y73.196 E.01314
G1 X114.945 Y67.79 E.16951
G1 X114.526 Y67.79 E.01314
G1 X114.526 Y73.196 E.16951
G1 X114.107 Y73.196 E.01314
G1 X114.107 Y67.79 E.16951
G1 X113.688 Y67.79 E.01314
G1 X113.688 Y73.196 E.16951
G1 X113.269 Y73.196 E.01314
G1 X113.269 Y67.79 E.16951
G1 X112.85 Y67.79 E.01314
G1 X112.85 Y73.196 E.16951
G1 X112.431 Y73.196 E.01314
G1 X112.431 Y67.79 E.16951
G1 X112.012 Y67.79 E.01314
G1 X112.012 Y73.196 E.16951
G1 X111.702 Y73.321 E.01048
G1 X111.593 Y73.429 E.00483
G1 X111.593 Y67.79 E.17683
G1 X111.174 Y67.79 E.01314
G1 X111.174 Y73.848 E.18997
G1 X110.755 Y74.267 E.01858
G1 X110.755 Y67.79 E.2031
G1 X110.336 Y67.79 E.01314
G1 X110.336 Y74.686 E.21624
G1 X109.917 Y75.105 E.01858
G1 X109.917 Y67.79 E.22938
G1 X109.498 Y67.79 E.01314
G1 X109.498 Y75.524 E.24251
G1 X109.079 Y75.943 E.01858
G1 X109.079 Y67.79 E.25565
G1 X108.66 Y67.79 E.01314
G1 X108.66 Y76.362 E.26879
G1 X108.241 Y76.781 E.01858
G1 X108.241 Y67.79 E.28192
G1 X107.822 Y67.79 E.01314
G1 X107.822 Y77.2 E.29506
G1 X107.403 Y77.619 E.01858
G1 X107.403 Y67.79 E.3082
G1 X106.984 Y67.79 E.01314
G1 X106.984 Y78.038 E.32133
G1 X106.565 Y78.457 E.01858
G1 X106.565 Y67.79 E.33447
G1 X106.246 Y67.79 E.00999
G1 X106.246 Y70.097 E.07234
G1 X106.146 Y70.097 E.00315
G1 X106.146 Y78.876 E.27527
G1 X105.727 Y79.295 E.01858
G1 X105.727 Y70.097 E.28841
G1 X105.308 Y70.097 E.01314
G1 X105.308 Y79.714 E.30154
G1 X104.889 Y80.133 E.01858
G1 X104.889 Y70.097 E.31468
G1 X104.47 Y70.097 E.01314
G1 X104.47 Y80.552 E.32782
G1 X104.051 Y80.971 E.01858
G1 X104.051 Y70.097 E.34095
G1 X103.939 Y70.097 E.00351
G1 X103.939 Y72.404 E.07234
G1 X103.632 Y72.404 E.00963
G1 X103.632 Y81.39 E.28175
G1 X103.213 Y81.809 E.01858
G1 X103.213 Y72.404 E.29489
G1 X102.794 Y72.404 E.01314
G1 X102.794 Y82.228 E.30803
G1 X102.375 Y82.647 E.01858
G1 X102.375 Y72.404 E.32116
G1 X101.956 Y72.404 E.01314
G1 X101.956 Y83.066 E.3343
G1 X101.537 Y83.485 E.01858
G1 X101.537 Y74.711 E.2751
G1 X101.118 Y74.711 E.01314
G1 X101.118 Y83.904 E.28824
G1 X100.699 Y84.323 E.01858
G1 X100.699 Y74.711 E.30137
G1 X100.28 Y74.711 E.01314
G1 X100.28 Y84.742 E.31451
G1 X99.861 Y85.161 E.01858
G1 X99.861 Y74.711 E.32765
G1 X99.442 Y74.711 E.01314
G1 X99.442 Y85.58 E.34078
G1 X99.023 Y85.999 E.01858
G1 X99.023 Y77.018 E.28158
G1 X98.604 Y77.018 E.01314
G1 X98.604 Y86.418 E.29472
G1 X98.185 Y86.837 E.01858
G1 X98.185 Y77.018 E.30786
G1 X97.766 Y77.018 E.01314
G1 X97.766 Y87.256 E.32099
G1 X97.348 Y87.675 E.01858
G1 X97.348 Y77.018 E.33413
G1 X97.018 Y77.018 E.01033
G1 X97.018 Y79.325 E.07234
G1 X96.929 Y79.325 E.00281
G1 X96.929 Y88.094 E.27493
G1 X96.51 Y88.513 E.01858
G1 X96.51 Y79.325 E.28807
G1 X96.091 Y79.325 E.01314
G1 X96.091 Y88.932 E.3012
G1 X95.672 Y89.351 E.01858
G1 X95.672 Y79.325 E.31434
G1 X95.253 Y79.325 E.01314
G1 X95.253 Y89.77 E.32748
G1 X94.834 Y90.189 E.01858
G1 X94.834 Y79.325 E.34061
G1 X94.711 Y79.325 E.00385
M73 P3 R59
G1 X94.711 Y81.632 E.07234
G1 X94.415 Y81.632 E.00929
G1 X94.415 Y90.607 E.28141
G1 X93.996 Y91.026 E.01858
G1 X93.996 Y81.632 E.29455
G1 X93.577 Y81.632 E.01314
G1 X93.577 Y91.445 E.30769
G1 X93.321 Y91.702 E.01136
G1 X93.196 Y92.003 E.01022
G1 X93.196 Y117.997 E.81504
G1 X93.321 Y118.298 E.01022
G1 X93.577 Y118.555 E.01136
G1 X93.577 Y128.368 E.30769
G1 X93.996 Y128.368 E.01314
G1 X93.996 Y118.974 E.29455
G1 X94.415 Y119.393 E.01858
G1 X94.415 Y128.368 E.28141
G1 X94.711 Y128.368 E.00929
G1 X94.711 Y130.675 E.07234
G1 X94.834 Y130.675 E.00385
G1 X94.834 Y119.811 E.34061
G1 X95.253 Y120.23 E.01858
G1 X95.253 Y130.675 E.32748
G1 X95.672 Y130.675 E.01314
G1 X95.672 Y120.649 E.31434
G1 X96.091 Y121.068 E.01858
G1 X96.091 Y130.675 E.3012
G1 X96.51 Y130.675 E.01314
G1 X96.51 Y121.487 E.28807
G1 X96.929 Y121.906 E.01858
G1 X96.929 Y130.675 E.27493
G1 X97.018 Y130.675 E.00281
G1 X97.018 Y132.982 E.07234
G1 X97.348 Y132.982 E.01033
G1 X97.348 Y122.325 E.33413
G1 X97.766 Y122.744 E.01858
G1 X97.766 Y132.982 E.32099
G1 X98.185 Y132.982 E.01314
G1 X98.185 Y123.163 E.30786
G1 X98.604 Y123.582 E.01858
G1 X98.604 Y132.982 E.29472
G1 X99.023 Y132.982 E.01314
G1 X99.023 Y124.001 E.28158
G1 X99.442 Y124.42 E.01858
M73 P4 R59
M73 Q4 S60
G1 X99.442 Y135.289 E.34078
G1 X99.861 Y135.289 E.01314
G1 X99.861 Y124.839 E.32765
G1 X100.28 Y125.258 E.01858
G1 X100.28 Y135.289 E.31451
G1 X100.699 Y135.289 E.01314
G1 X100.699 Y125.677 E.30137
G1 X101.118 Y126.096 E.01858
G1 X101.118 Y135.289 E.28824
G1 X101.537 Y135.289 E.01314
G1 X101.537 Y126.515 E.2751
G1 X101.956 Y126.934 E.01858
G1 X101.956 Y137.596 E.3343
